X:1
T:Lanesboro, CM
T:Lanesboro, CM
T:Robert William Dixon, 1805
T:Public Domain Courtesy of the Cyber Hymnal™
C:Robert William Dixon, 1805
Z:Public Domain
Z:Courtesy of the Cyber Hymnal™
%%score ( 1 2 ) ( 3 4 )
L:1/8
Q:1/4=105
M:2/4
K:C
V:1 treble 
V:2 treble 
V:3 bass 
V:4 bass 
V:1
 [Ec]2 GG | [FA]2 ([FB][Ec]) | [DG]2 [DF]2 | [CE]3 G x | [FA]2 (fd) | [Ec]2 [DB]2 | [Ec]3 [Ge] | %7
 [Gd]2 [GB]2 | [Gc]3 [Gd] | ([Ge][Fd]) ([Ec][DB]) | [CA]3 G | (GA) ([Gc][Ad]) | [Ge]2 [Fd]2 | %13
 [Ec]4 |] %14
V:2
 x2 GG | x4 | x4 | x3 G2 | x2 F2 | x4 | x4 | x4 | x4 | x4 | x3 G | F2 x2 | x4 | x4 |] %14
V:3
 [G,,C,]2 [C,E,][C,E,] | [C,E,]2 (D,C,) | [G,,B,,]2 G,,2 | [G,,C,]3 [C,E,] x | [A,,F,]2 [A,,D,]2 | %5
 [G,,G,]2 G,,2 | [G,,C,]3 C, | [B,,G,]2 (G,F,) | [C,E,]3 [B,,G,] | (C,[B,,D,]) E,2 | [A,,C,]3 C, | %11
 F,2 (E,F,) | [C,G,]2 [G,,B,,]2 | C,4 |] %14
V:4
 x4 | x2 G,,2 | x2 G,,2 | x5 | x4 | x2 G,,2 | x3 C, | x2 D,2 | x4 | x2 (A,,^G,,) | x3 C, | %11
 (C,D,) C,2 | x4 | C,4 |] %14

